X:1
T:Title
%%score { 1 | 2 }
L:1/8
Q:1/4=100
M:6/8
K:F
V:1 treble nm="Grand Piano"
V:2 bass 
V:1
 A3 FGA | B3 A3 | F3 [FG][FA][EB] | A6 | c3 GAB | d3 c3 | c3 cc=B | [Ec]6 | A3 FGA | B3 A3 | %10
w: Geo.~F.~Rosche * * *||||||||||
 [EG]3 [Ed][Ec][EB] | A6 | c3 A[B,FG]F |[M:15/16] [Fd]3/2- [Fd]3 [Fc]3 | %14
w: ||||
[M:3/4] [FA]3 [FG] [FA][EB] | A6 | c3 c [Gc][Ac] | [Fd]3 [Ac]3 | [FA]3 [FA] [FA][GA] | B3 A3 | %20
w: ||||||
 F3 A Bc | [Dd]3 [DB]3 | [CFA]3 [DFB] [CFA][B,EG] | [A,CF]6 |] %24
w: ||||
V:2
 [F,CF]3 [F,A,][F,B,F][F,CF] | [F,DF]3 [F,CF]3 | [C,A,]3 [C,C][C,C][C,C] | [F,CF]6 | %4
 [F,A,F]3 [F,B,F][F,CF][F,DF] | [F,B,F]3 [F,A,F]3 | [G,CE]3 [A,CF][G,CE][G,DF] | [C,C]6 | %8
 [F,CF]3 [F,A,][F,B,F][F,CF] | [F,DF]3 [F,CF]3 | [C,C]3 [C,C][C,C][C,C] | [F,CF]6 | %12
 [F,A,F]3 [F,CF]D,A, |[M:15/16] [=B,,_A,]3/2- [B,,A,]3 [C,=A,]3 |[M:3/4] [C,C]3 [C,C] [C,C][C,C] | %15
 [F,CF]6 | [F,A,F]3 [F,A,F] [F,B,][F,C] | [F,B,]3 [F,C]3 | [F,C]3 [C,C] [D,C][E,^C] | %19
 [F,DF]3 [F,CF]3 | [F,A,C]3 [F,C] [F,G,C][F,A,_E] | [B,,F,B,]3 [B,,F,]3 | C,3 C, C,C, | F,6 |] %24

